src/assets/icons/qr.svg

<svg width="24" height="24" fill="none">
  <path d="M11 11H0V0h11v11ZM2 9h7V2H2v7ZM24 11H13V0h11v11Zm-9-2h7V2h-7v7ZM11 24H0V13h11v11Zm-9-2h7v-7H2v7ZM24 20h-2v-5h-2v3h-6v-5h2v3h2v-3h6v7ZM24 24H14v-4h2v2h8v2Z" fill="#0A0F15"/>
  <path d="M7 4H4v3h3V4ZM20 4h-3v3h3V4ZM7 17H4v3h3v-3Z" fill="#0A0F15"/>
</svg>

<svg width="24" height="24" viewBox="0 0 24 24" fill="none" xmlns="http://www.w3.org/2000/svg">
<path d="M11 11H0V0H11V11ZM2 9H9V2H2V9Z" fill="#0A0F15"/>
<path d="M24 11H13V0H24V11ZM15 9H22V2H15V9Z" fill="#0A0F15"/>
<path d="M11 24H0V13H11V24ZM2 22H9V15H2V22Z" fill="#0A0F15"/>
<path d="M24 20H22V15H20V18H14V13H16V16H18V13H24V20Z" fill="#0A0F15"/>
<path d="M24 24H14V20H16V22H24V24Z" fill="#0A0F15"/>
<path d="M7 4H4V7H7V4Z" fill="#0A0F15"/>
<path d="M20 4H17V7H20V4Z" fill="#0A0F15"/>
<path d="M7 17H4V20H7V17Z" fill="#0A0F15"/>
</svg>
